dist/img/contacts-phone.svg

<svg width="36" height="36" viewBox="0 0 36 36" fill="none" xmlns="http://www.w3.org/2000/svg">
<path d="M35.0993 26.8142L30.7478 22.4627C29.548 21.263 27.5959 21.263 26.3962 22.4627L24.4182 24.4406C23.5093 25.3495 22.0304 25.3492 21.1218 24.441L12.5485 15.8603C11.6374 14.9493 11.6373 13.4748 12.5485 12.5636C12.8671 12.245 13.7819 11.3302 14.5264 10.5856C15.7209 9.39125 15.7376 7.44515 14.5253 6.23297L10.1748 1.89623C8.97512 0.696572 7.02299 0.696572 5.82648 1.89309C4.93113 2.78065 4.64234 3.06697 4.24088 3.46494C-0.0854677 7.79123 -0.0854681 14.8306 4.24068 19.1568L17.8249 32.7481C22.1614 37.0847 29.1801 37.085 33.5169 32.7481L35.0993 31.1658C36.2991 29.966 36.2991 28.014 35.0993 26.8142ZM7.27384 3.34674C7.67372 2.94685 8.32432 2.94678 8.7255 3.34783L13.0759 7.68457C13.4768 8.08541 13.4768 8.73416 13.0759 9.13507L12.3506 9.86033L6.55228 4.062L7.27384 3.34674ZM19.2757 31.2978L5.69138 17.7063C2.34421 14.3592 2.16023 9.10335 5.12557 5.53637L10.9071 11.3179C9.38793 13.04 9.45123 15.6642 11.0976 17.3106L19.6707 25.8909C19.6708 25.8909 19.6709 25.8911 19.671 25.8911C21.3156 27.5358 23.9396 27.6032 25.6639 26.082L31.4455 31.8637C27.8899 34.8239 22.6459 34.6681 19.2757 31.2978ZM33.6489 29.7153L32.9236 30.4406L27.1215 24.6384L27.8467 23.9132C28.2467 23.5133 28.8973 23.5132 29.2973 23.9132L33.6488 28.2647C34.0488 28.6647 34.0488 29.3154 33.6489 29.7153Z" fill="#EB0002"/>
</svg>

<svg width="36" height="36" fill="none" xmlns="http://www.w3.org/2000/svg"><path d="M35.1 26.814l-4.352-4.351a3.08 3.08 0 00-4.352 0l-1.978 1.978a2.334 2.334 0 01-3.296 0l-8.573-8.58a2.33 2.33 0 010-3.297l1.977-1.978a3.075 3.075 0 000-4.353l-4.351-4.337a3.08 3.08 0 00-4.349-.003L4.241 3.465C-.085 7.79-.085 14.83 4.24 19.157l13.584 13.591a11.09 11.09 0 0015.692 0l1.582-1.582a3.08 3.08 0 000-4.352zM7.273 3.347c.4-.4 1.05-.4 1.452 0l4.35 4.338c.4.4.4 1.05 0 1.45l-.725.725-5.799-5.798.722-.715zm12.002 27.95L5.69 17.708a9.018 9.018 0 01-.565-12.17l5.781 5.78a4.378 4.378 0 00.19 5.994l8.574 8.58a4.378 4.378 0 005.993.191l5.781 5.782a9 9 0 01-12.17-.566zm14.373-1.582l-.725.726-5.802-5.803.725-.725c.4-.4 1.05-.4 1.45 0l4.352 4.352c.4.4.4 1.05 0 1.45z" fill="#EB0002"/></svg>
